src/img/pressure.svg

<svg xmlns="http://www.w3.org/2000/svg" width="8" height="11" fill="none"><g clip-path="url(#a)"><path fill="#fff" d="M0 4.5v1h8v-1zM6 2l-.705-.705-.795.79V.5h-1v1.595l-.805-.79L2 2l2 2zM0 7h8V6H0zm2 2.5.695.695.805-.79V11h1V9.415l.795.795L6 9.5l-2-2z"/></g><defs><clipPath id="a"><path fill="#fff" d="M0 0h8v11H0z"/></clipPath></defs></svg>

<svg width="8" height="11" viewBox="0 0 8 11" fill="none" xmlns="http://www.w3.org/2000/svg">
<g clip-path="url(#clip0_6_57)">
<path d="M0 4.5V5.5H8V4.5H0ZM6 2L5.295 1.295L4.5 2.085V0.5H3.5V2.095L2.695 1.305L2 2L4 4L6 2ZM0 7H8V6H0V7ZM2 9.5L2.695 10.195L3.5 9.405V11H4.5V9.415L5.295 10.21L6 9.5L4 7.5L2 9.5Z" fill="white"/>
</g>
<defs>
<clipPath id="clip0_6_57">
<rect width="8" height="11" fill="white"/>
</clipPath>
</defs>
</svg>
